X: 65
T: JIG: Tripping up the Stairs
C: C: Trad.; S: Various
C: Set Leaders: Olya, Andrey
Z: Anton Zille ed., Oleg Naumov arr.; NfldWhistler at The Session
N: https://thesession.org/members/26966/sets/92387
R: Jig
M: 6/8
L: 1/8
Q: 3/8=116
K: Dmaj
|:"D"FAA "G"GBB|"D"FAd fed|"A"cBc ABc|"D"dfe dAG|
"D"FAA "G"GBB|"D"FAd fed|"A"cBc ABc|1 "D"dfe d2A:|2 "D"dfe d2c||
|:"Bm"dBB fBB|"Bm"fgf fed|"A"cAA eAA|"A"efe edc|
"Bm"dBB fBB|"Bm"fgf fed|"A"cBc ABc|1 "D"dfe d2c:|2 "D"dfe d2A||

